X:2
T:Black Watch
M:2/4
Q:1/4=100
L:1/8
K:D
%%MIDI channel 1
%%MIDI program 72
%%MIDI transpose 8
%%MIDI grace 1/8
%%MIDI ratio 3 1
(B/c/)|dB BB|TFB B/c/d/B/|cA AA|A/B/c/d/ ed/c/|dB BB|TFB Bd/e/|f>g fe|dB B:|
z|:f>g af|e/c/A/c/ ec|d>e Tf3/e/|d/c/B/A/ B/c/d/e/|Tf3/g/ af|e/c/A/c/ ed/e/|f>g fe|dB Bz:|
